icons/type-icons/icons/text-x-install.svg

<?xml version="1.0" encoding="UTF-8"?>
<svg width="22" height="22" version="1.1" xmlns="http://www.w3.org/2000/svg">
 <path id="rect4139" transform="translate(0 -3.1e-5)" d="m3 3v16h16v-16h-16zm1 4h14v11h-14v-11zm4 2v4h-1l4 4 4-4h-1v-4h-6zm1 1h4v3h0.58398l-2.584 2.584-2.584-2.584h0.58398v-3z" fill="#04896a"/>
</svg>

<?xml version="1.0" encoding="UTF-8" standalone="no"?>

<!-- Created with Inkscape (http://www.inkscape.org/) -->
<svg width="22" version="1.1" xmlns="http://www.w3.org/2000/svg" height="22" xmlns:inkscape="http://www.inkscape.org/namespaces/inkscape">
 <defs id="defs3871"/>
 <metadata id="metadata3874"/>
 <path inkscape:label="Capa 1" inkscape:groupmode="layer" style="fill:#04896a" id="rect4139" d="M 3 3 L 3 7 L 3 19 L 4.3339844 19 L 19 19 L 19 17.666016 L 19 7 L 19 3 L 3 3 z M 4 7 L 7 7 L 16 7 L 18 7 L 18 18 L 4 18 L 4 7 z M 8 9 L 8 10 L 8 13 L 7 13 L 11 17 L 15 13 L 14 13 L 14 10 L 14 9 L 8 9 z M 9 10 L 13 10 L 13 13 L 13.583984 13 L 11 15.583984 L 8.4160156 13 L 9 13 L 9 10 z " transform="matrix(1 0 0 1 0 -0.000031)"/>
</svg>
